src/assets/filled/Radar1.svg

<?xml version="1.0" encoding="UTF-8"?>
<svg width="24" height="24" viewBox="0 0 24 24" xmlns="http://www.w3.org/2000/svg">
 <path d="m12 2c-5.52 0-10 4.48-10 10s4.48 10 10 10 10-4.48 10-10-4.48-10-10-10zm0 17.75c-4.27 0-7.75-3.48-7.75-7.75 0-1.36 0.36-2.69 1.03-3.86 0.2-0.36 0.66-0.48 1.02-0.28l6.07 3.49c0.36 0.21 0.48 0.66 0.28 1.02-0.21 0.36-0.66 0.48-1.02 0.28l-5.39-3.09c-0.32 0.77-0.49 1.6-0.49 2.44 0 3.45 2.8 6.25 6.25 6.25s6.25-2.8 6.25-6.25-2.8-6.25-6.25-6.25c-1.36 0-2.66 0.43-3.75 1.25-0.33 0.25-0.8 0.18-1.05-0.15s-0.18-0.8 0.15-1.05c1.35-1.01 2.96-1.55 4.65-1.55 4.27 0 7.75 3.48 7.75 7.75s-3.48 7.75-7.75 7.75z"/>
</svg>

<svg width="24" height="24" viewBox="0 0 24 24"  xmlns="http://www.w3.org/2000/svg">
<path d="M12 2C6.48 2 2 6.48 2 12C2 17.52 6.48 22 12 22C17.52 22 22 17.52 22 12C22 6.48 17.52 2 12 2ZM12 19.75C7.73 19.75 4.25 16.27 4.25 12C4.25 10.64 4.61 9.31 5.28 8.14C5.48 7.78 5.94 7.66 6.3 7.86L12.37 11.35C12.73 11.56 12.85 12.01 12.65 12.37C12.44 12.73 11.99 12.85 11.63 12.65L6.24 9.56C5.92 10.33 5.75 11.16 5.75 12C5.75 15.45 8.55 18.25 12 18.25C15.45 18.25 18.25 15.45 18.25 12C18.25 8.55 15.45 5.75 12 5.75C10.64 5.75 9.34 6.18 8.25 7C7.92 7.25 7.45 7.18 7.2 6.85C6.95 6.52 7.02 6.05 7.35 5.8C8.7 4.79 10.31 4.25 12 4.25C16.27 4.25 19.75 7.73 19.75 12C19.75 16.27 16.27 19.75 12 19.75Z" />
</svg>
